X:1
T:Title
%%score { ( 1 3 ) | ( 2 4 ) }
L:1/8
M:6/8
K:Db
V:1 treble nm="Grand Piano"
V:3 treble 
V:2 bass 
V:4 bass 
V:1
 z3 z2[Q:1/4=100] [FA] | [FA]>[GB][FA] [DF][EG][FA] | B>BB [FA]2 [FA] | [Fd]>[Fe][Fd] [FA][EG]F | %4
 E3 .A2 A | [FA]>[GB][FA] [DF][EG][FA] | B>BB [FA]2 [FB] | c3 A2 B | A6 | A>AA e3 | %10
 [Fd]>[Fd][Gd] [FA]3 | [EG][EA][EG] [DF][FA][Fd] | [=Gc][GB][Ge] e2 A | [Af][Af][Ad] e2 c | %14
[M:13/16] z/ z/ z/ z/ z c/-c/-c/-c-<c |[M:3/4] B3 A2 e |[M:5/8] d-d- d3 |] %17
V:2
 z3 z2 [D,D] | [D,D]>[D,D][D,D] [D,A,][D,A,][D,D] | [G,DG]>[G,DG][G,DG] [D,D]2 [D,D] | %3
 [D,A,]>[D,A,][D,A,] [D,A,][D,A,][F,A,D] | [A,C]3 .[A,CE]2 [A,CG] | %5
 [D,D]>[D,D][D,D] [D,A,][D,A,][D,D] | [G,DG]>[G,DG][G,DG] [D,D]2 [D,A,] | [E,A,E]3 [E,CE]2 [E,DE] | %8
 [A,CE]6 | [A,CG]>[A,CG][A,CG] [A,CG]3 | [D,A,]>[D,A,][D,B,] [D,D]3 | %11
 [C,A,][C,A,][C,A,] [D,A,][D,A,][D,A,] | [E,E][E,E][E,D][K:treble] [A,CG]2 A, | %13
 [D,D][D,D][F,D][K:treble] [A,CG]2 [A,EG] |[M:13/16] z/ z/[K:bass] z/ z/ z F-<F z/ z | %15
[M:3/4] [G,B,D]3[K:treble] [A,CG]2 [A,CG] |[M:5/8][K:bass] z2 B, A,2 |] %17
V:3
 x6 | x6 | x6 | x6 | x6 | x6 | x6 | x6 | x6 | x6 | x6 | x6 | x6 | x6 | %14
[M:13/16] d[Fd][FB] z/ z/ z E3/2 |[M:3/4] x6 |[M:5/8] [DF]2 G F2 |] %17
V:4
 x6 | x6 | x6 | x6 | x6 | x6 | x6 | x6 | x6 | x6 | x6 | x6 | x3[K:treble] x3 | x3[K:treble] x3 | %14
[M:13/16] [B,DF][K:bass][B,,B,][D,B,][F,=A,]/-[F,A,]/-[F,A,]/-[F,A,]-<[F,A,] | %15
[M:3/4] x3[K:treble] x3 |[M:5/8][K:bass] D,-D,- D,3 |] %17

